X: 1
T: Muineira De Lugo
M: 6/8
L: 1/8
R: jig
K: Gmaj
|: gf | d3- dgf | d3- dgf | ded cBc | e d2- dgf |
d3- dgf | d3- dgf | ded cBA |[1 G3- G :|[2 G3- GB^A ||
|: B2 c dcB | A3- AcB | c2 d edc | B3 B2 ^A |
B2 c dcB | A3- Ad^c | ded cBA |[1 G3- GB^A :|[2 G3- G ||
